X:0
T:Hughie the Graeme
S:Scottish Folksinger
M:4/4
L:1/4
Q:1/2=80
K:DDor
% mixolydian/dorian hexatonic
c|cc    dd|ec d2|cc    dd|ec d>G|
  cB    AG|cB Ac|Bd    cA|GE D2||
  GG/G/ GD|EG Ad|cA/A/ AA|GE D2|]
